usr/share/icons/biglinux-icons-material/scalable/apps/accessories-document-viewer.svg

<svg width="24" height="24" viewBox="0 0 24 24" fill="none" xmlns="http://www.w3.org/2000/svg">
<path fill-rule="evenodd" clip-rule="evenodd" d="M9.59604 1.11359C9.71588 1.11486 9.83043 1.0996 9.93969 1.06779C11.3755 0.973736 12.8111 0.977551 14.2467 1.07924C15.5484 1.18066 16.8085 1.46308 18.0269 1.9265C20.0525 2.76044 21.4386 4.2069 22.185 6.26586C22.6119 7.50549 22.8639 8.78021 22.9411 10.09C23.0478 11.7347 23.0096 13.3758 22.8265 15.0133C22.6895 16.1642 22.3916 17.271 21.933 18.3336C21.0824 20.1761 19.704 21.447 17.7978 22.1463C16.2531 22.6682 14.6647 22.943 13.0325 22.9706C11.1966 23.0661 9.37913 22.9287 7.57997 22.5585C4.26839 21.8208 2.22559 19.8018 1.45158 16.5017C1.12311 15.0161 0.974199 13.5124 1.00483 11.9906C0.968176 10.3724 1.14 8.77709 1.52031 7.20471C2.33171 4.11908 4.2905 2.20701 7.39669 1.46852C8.12048 1.29157 8.8536 1.17326 9.59604 1.11359Z" fill="url(#paint0_radial_1_41)"/>
<path d="M9.8768 12.2822C10.3233 11.4071 10.8307 10.4212 11.2368 9.43124L11.3974 9.04047C10.8669 7.02179 10.5488 5.40139 10.833 4.35369C10.9095 4.08053 11.2259 3.91478 11.5642 3.91478L11.7703 3.91783H11.8081C12.2712 3.91072 12.4892 4.49979 12.514 4.72883C12.5549 5.11026 12.3784 5.7558 12.3784 5.7558C12.3784 5.49512 12.3885 5.0739 12.2241 4.71042C12.0325 4.28983 11.8496 4.03858 11.6856 3.99875C11.6028 4.05406 11.5223 4.1686 11.4947 4.38893C11.4376 4.69785 11.4205 5.08779 11.4205 5.28879C11.4205 5.99898 11.5603 6.93637 11.8351 7.9027C11.887 7.75309 11.9326 7.60934 11.9689 7.47465C12.0252 7.26238 12.3835 5.8553 12.3835 5.8553C12.3835 5.8553 12.2932 7.72835 12.1671 8.29513C12.1401 8.41489 12.1103 8.53334 12.0792 8.65457C12.5324 9.92071 13.2626 11.0507 14.1336 11.864C14.4771 12.185 14.9108 12.4438 15.3214 12.6797C16.2179 12.5516 17.0434 12.4911 17.7319 12.4987C18.6455 12.5107 19.3162 12.6459 19.5877 12.9134C19.7206 13.0434 19.7746 13.2004 19.7914 13.3765C19.7952 13.445 19.762 13.6059 19.7522 13.6462C19.762 13.5974 19.762 13.357 19.0286 13.1229C18.4509 12.9382 17.3699 12.9439 16.0728 13.082C17.5732 13.8161 19.0348 14.1808 19.4981 13.9621C19.6114 13.907 19.7488 13.7188 19.7488 13.7188C19.7488 13.7188 19.6671 14.0897 19.6085 14.1825C19.5337 14.2832 19.3869 14.3924 19.2477 14.4292C18.5161 14.6244 16.6118 14.1727 14.9516 13.2241C13.0968 13.4973 11.0599 14.0019 9.42694 14.5375C7.82238 17.3495 6.61608 18.6409 5.63477 18.1496L5.27397 17.9682C5.12731 17.8843 5.10492 17.6801 5.13884 17.5138C5.25327 16.954 5.95519 16.1109 7.36514 15.269C7.5169 15.1772 8.19293 14.8198 8.19293 14.8198C8.19293 14.8198 7.69245 15.3042 7.5752 15.3992C6.44981 16.3215 5.61917 17.4818 5.64 17.9315L5.64406 17.9707C6.60005 17.8345 8.03372 15.8885 9.8768 12.2822ZM10.4608 12.5816C10.1529 13.1613 9.85203 13.6989 9.57423 14.1925C11.1109 13.5486 12.7647 13.1366 14.3392 12.844C14.1277 12.6978 13.9223 12.5431 13.729 12.3796C12.862 11.6456 12.201 10.7298 11.7218 9.76619C11.4179 10.5848 11.0566 11.4546 10.4608 12.5816Z" fill="white"/>
<defs>
<radialGradient id="paint0_radial_1_41" cx="0" cy="0" r="1" gradientUnits="userSpaceOnUse" gradientTransform="translate(12 1) rotate(90) scale(11)">
<stop stop-color="#F08C85"/>
<stop offset="1" stop-color="#E84F43"/>
</radialGradient>
</defs>
</svg>

<svg xmlns="http://www.w3.org/2000/svg" width="24" height="24" fill="none"><path fill="url(#a)" fill-rule="evenodd" d="M9.596 1.114c.12 0 .234-.014.344-.046a31.627 31.627 0 0 1 4.307.011c1.301.102 2.561.384 3.78.848 2.025.833 3.412 2.28 4.158 4.339.427 1.24.679 2.514.756 3.824a27.94 27.94 0 0 1-.114 4.923 11.88 11.88 0 0 1-.894 3.32c-.85 1.843-2.229 3.114-4.135 3.813a15.624 15.624 0 0 1-4.765.825 21.423 21.423 0 0 1-5.453-.413c-3.312-.737-5.354-2.756-6.128-6.056a19.047 19.047 0 0 1-.447-4.511 18.491 18.491 0 0 1 .515-4.786c.812-3.086 2.77-4.998 5.877-5.736a13.953 13.953 0 0 1 2.199-.355Z" clip-rule="evenodd"/><path fill="#fff" d="M9.877 12.282c.446-.875.954-1.86 1.36-2.85l.16-.392c-.53-2.018-.848-3.639-.564-4.686.076-.273.393-.44.731-.44l.206.004h.038c.463-.007.681.582.706.81.04.382-.136 1.028-.136 1.028 0-.26.01-.682-.154-1.046-.191-.42-.374-.671-.538-.711-.083.055-.164.17-.191.39a5.617 5.617 0 0 0-.074.9c0 .71.14 1.647.414 2.614.052-.15.098-.294.134-.428.056-.213.415-1.62.415-1.62s-.09 1.873-.217 2.44c-.027.12-.057.238-.088.36.453 1.266 1.184 2.396 2.055 3.209.343.321.777.58 1.187.816a16.214 16.214 0 0 1 2.41-.181c.914.012 1.585.147 1.857.414.133.13.187.287.203.463.004.069-.029.23-.039.27.01-.049.01-.289-.723-.523-.578-.185-1.66-.18-2.956-.041 1.5.734 2.962 1.099 3.425.88.113-.055.25-.243.25-.243s-.08.37-.14.463a.73.73 0 0 1-.36.247c-.732.195-2.636-.256-4.296-1.205a35.102 35.102 0 0 0-5.525 1.313c-1.605 2.812-2.81 4.104-3.792 3.613l-.361-.182c-.147-.084-.17-.288-.135-.454.114-.56.816-1.403 2.226-2.245.152-.092.828-.45.828-.45s-.5.485-.618.58c-1.125.923-1.956 2.083-1.935 2.533l.004.039c.956-.137 2.39-2.082 4.233-5.689Zm.584.3c-.308.58-.609 1.117-.887 1.61 1.537-.643 3.19-1.055 4.765-1.348a7.911 7.911 0 0 1-.61-.464c-.867-.734-1.528-1.65-2.007-2.614a22.416 22.416 0 0 1-1.261 2.816Z"/><defs><radialGradient id="a" cx="0" cy="0" r="1" gradientTransform="matrix(0 11 -11 0 12 1)" gradientUnits="userSpaceOnUse"><stop stop-color="#F08C85"/><stop offset="1" stop-color="#E84F43"/></radialGradient></defs></svg>
